X: 1834
T: Heart and Hand   #2
R: march
%S: s:2 b:19(9,10)
B: O'Neill's 1850 #1834
O: Cronin
Z: Bob Safranek, rjs@gsp.org
Z: Repeats added at start of B and C parts
M: 6/8
L: 1/8
K: G
D "^A"\
|: GAB Bcd | d2c ABc | dBG \
[1,3 dBG | AFD DEF :|\
[2,4 cAF | G2B G2 :: B "^B"\
| ABA A2d | c2e dcd | e2c ABA |
| FBA GFG || A2d c2e | dfe dcB \
| BAF AGE | E3 D2 :: (G/F/) "^C"\
| E2E GBd | g3 gfe | dcB AGF |\
[1,3 B2E E2 :|[2,4 E3 D2 :|
